!! 00000] TT[00
!!!OTL: Zhefang qingge
!!!ARE: Asia, China,Yunnan
!! Ethnic Group: Dai
!! Zhongguo Minge Xuan, S. 273
!!!SCT: C1164
!!!YEM: Copyright 1995, estate of Helmut Schaffrath.
**kern
*ICvox
*Ivox
!! Mixed meters:  2/4; 3/4
*M3/4
*k[b-e-a-d-]
*A-:
{8f
8a-
4f
=1
8f
8a-
8cc
8ee-
=2
8cc
8ee-
4cc
8f
8r}
=3
*M2/4
{4b-
4cc
=4
8f
8a-
4f
=5
4b-
4cc
=6
4cc
4cc}
=7
{4a-
4b-
=8
4cc
8b-
8a-
=9
4f
4a-
=10
*M3/4
2b-
4r}
=11
*M2/4
{4a-
8cc
8cc
=12
8b-
8cc
8a-
8a-
=13
4cc
8cc
8r}
=14
{8.b-
16cc
8a-
8f
=15
4e-
8f
8a-
=16
*M3/4
4a-
4.b-
8cc
=17
8a-}
{8r
4cc
4a-
=18
*M2/4
4cc
4f
=19
4a-
8b-
8cc
=20
8b-
8a-
4f
=21
4a-
16cc
8.r}
==
!!!AGN: Qingge
!! Triller, VorschlÑge, Glissando, +++ KÅrzester Notenwert wegen
!!    einer Doppelpunktierung nicht gewÑhlt (6.letzter Takt). +++
!!!ONB: ESAC (Essen Associative Code) Database: CHINA_100
!!!AMT: irregular
!!!AIN: vox
!!!EED: Helmut Schaffrath
!!!EEV: 1.0
*-
